src/icons/linkedin.svg

<svg width="64" height="64" viewBox="0 0 64 64" fill="none" xmlns="http://www.w3.org/2000/svg">
<path d="M54.5253 54.5387H45.048V39.688C45.048 36.1467 44.976 31.5893 40.1093 31.5893C35.168 31.5893 34.4133 35.4427 34.4133 39.4267V54.5387H24.936V24H34.04V28.1627H34.1627C35.4347 25.7627 38.528 23.2293 43.1493 23.2293C52.752 23.2293 54.528 29.5493 54.528 37.776V54.5387H54.5253ZM14.232 19.8213C11.1813 19.8213 8.73067 17.352 8.73067 14.3147C8.73067 11.28 11.184 8.81333 14.232 8.81333C17.272 8.81333 19.736 11.28 19.736 14.3147C19.736 17.352 17.2693 19.8213 14.232 19.8213ZM18.984 54.5387H9.48V24H18.984V54.5387ZM59.2667 0H4.72267C2.112 0 0 2.064 0 4.61067V59.3893C0 61.9387 2.112 64 4.72267 64H59.2587C61.8667 64 64 61.9387 64 59.3893V4.61067C64 2.064 61.8667 0 59.2587 0H59.2667Z" fill="#333333"/>
</svg>

<svg xmlns="http://www.w3.org/2000/svg" fill="none" viewBox="0 0 64 64"><defs/><path fill="#333" d="M54.53 54.54h-9.48V39.69c0-3.54-.07-8.1-4.94-8.1-4.94 0-5.7 3.85-5.7 7.84v15.1h-9.47V24h9.1v4.16h.12c1.27-2.4 4.37-4.93 8.99-4.93 9.6 0 11.38 6.32 11.38 14.55v16.76zm-40.3-34.72a5.5 5.5 0 110-11 5.5 5.5 0 010 11zm4.75 34.72h-9.5V24h9.5v30.54zM59.27 0H4.72A4.67 4.67 0 000 4.61V59.4A4.66 4.66 0 004.72 64h54.54c2.6 0 4.74-2.06 4.74-4.61V4.6A4.68 4.68 0 0059.26 0z"/></svg>
